!!!OTL: DREI WORTE NENN ICH EUCH INHALTSSCHWER
!!!ARE: Europa, Mitteleuropa, Deutschland
!!!SCT: F0309
!!!YEM: Copyright 1995, estate of Helmut Schaffrath.
**kern
*ICvox
*Ivox
*M4/4
*k[b-e-a-]
*E-:
{4B-
=1
4e-
4e-
4e-
8d
8c
=2
4.B-
8B-
4B-
8r}
{8B-
=3
4c
8d
8d
4e-
8G
8G
=4
2B-
4G
8r}
{8G
=5
4e-
8e-
8e-
4e-
8d
8c
=6
4Bn
4Bn
4c
8r}
{8c
=7
4d-
4d-
4c
8B-
8A-
=8
4A-
4B-
4A-
8r}
{8c
=9
4c
8c
8c
4c
4F
=10
4.B-
8A-
8G}
{8E-
8F
8G
=11
4A-
4B-
8c
8d
4e-
=12
2e-
2d
=13
2.e-}
==
!!!AGN: Jugend - Lied, Moral, religioes
!!!ONB: ESAC (Essen Associative Code) Database: FINK
!!!AMT: simple quadruple
!!!AIN: vox
!!!EED: Helmut Schaffrath
!!!EEV: 1.0
*-
